packages/foundations/icons/Food/IceCream.svg

<svg width="24" height="24" viewBox="0 0 24 24" fill="none" xmlns="http://www.w3.org/2000/svg">
<path d="M12 5.35412C11.3776 6.05926 11 6.9855 11 7.99995C11 9.01439 11.3776 9.94064 12 10.6458C12.6224 9.94064 13 9.01439 13 7.99995C13 6.9855 12.6224 6.05926 12 5.35412Z" fill="#3D474D"/>
<path d="M8.93979 10.6582C8.75105 10.1392 8.17729 9.87141 7.65826 10.0602C7.13922 10.2489 6.87147 10.8227 7.06021 11.3417L7.13144 11.5376C7.68915 11.8328 8.32505 11.9999 9 11.9999C9.14177 11.9999 9.28182 11.9926 9.41979 11.9782L8.93979 10.6582Z" fill="#3D474D"/>
<path fill-rule="evenodd" clip-rule="evenodd" d="M10.2635 4.2036C10.3634 3.7329 10.5231 3.42051 10.6989 3.21887C10.9361 2.94698 11.3143 2.74878 12 2.74878C12.6858 2.74878 13.0627 2.947 13.2983 3.21786C13.4737 3.41952 13.6328 3.7326 13.7315 4.20525C13.0561 4.43093 12.4609 4.83188 12 5.35412C11.5379 4.8306 10.941 4.42896 10.2635 4.2036ZM8.25459 4.06928C8.2078 4.35468 8.17887 4.65104 8.16537 4.9557L10.1634 5.04419C10.1778 4.71951 10.213 4.44136 10.2635 4.2036C9.86634 4.07148 9.44152 3.99995 9 3.99995C8.74527 3.99995 8.4961 4.02376 8.25459 4.06928ZM7.13144 11.5376L11.0602 22.3417C11.2039 22.7369 11.5795 22.9999 12 22.9999C12.4205 22.9999 12.7961 22.7369 12.9398 22.3417L16.8686 11.5376C18.1363 10.8666 19 9.53414 19 7.99995C19 6.04341 17.5953 4.41497 15.7394 4.06815C15.6036 3.23064 15.3135 2.48723 14.8073 1.90528C14.1003 1.09242 13.1086 0.748779 12 0.748779C10.8913 0.748779 9.89972 1.09244 9.19166 1.90427C8.68393 2.48641 8.39211 3.23053 8.25459 4.06928C6.40167 4.41851 5 6.04554 5 7.99995C5 9.53414 5.86373 10.8666 7.13144 11.5376ZM9.41979 11.9782C9.28182 11.9926 9.14177 11.9999 9 11.9999C8.32505 11.9999 7.68915 11.8328 7.13144 11.5376L7.06021 11.3417C6.87147 10.8227 7.13922 10.2489 7.65826 10.0602C8.17729 9.87141 8.75105 10.1392 8.93979 10.6582L9.41979 11.9782ZM12 10.6458C12.646 11.3776 13.5556 11.8713 14.5802 11.9782L12 19.0738L9.41979 11.9782C10.4444 11.8713 11.354 11.3776 12 10.6458ZM11 7.99995C11 6.9855 11.3776 6.05926 12 5.35412C12.6224 6.05926 13 6.9855 13 7.99995C13 9.01439 12.6224 9.94064 12 10.6458C11.3776 9.94064 11 9.01439 11 7.99995ZM11 7.99995C11 9.10452 10.1046 9.99995 9 9.99995C7.89543 9.99995 7 9.10452 7 7.99995C7 6.89538 7.89543 5.99995 9 5.99995C10.1046 5.99995 11 6.89538 11 7.99995ZM13 7.99995C13 6.89538 13.8954 5.99995 15 5.99995C16.1046 5.99995 17 6.89538 17 7.99995C17 9.10452 16.1046 9.99995 15 9.99995C13.8954 9.99995 13 9.10452 13 7.99995Z" fill="#3D474D"/>
<path d="M8.16537 4.9557L10.1634 5.04419C10.1778 4.71951 10.213 4.44136 10.2635 4.2036C9.86634 4.07148 9.44152 3.99995 9 3.99995C8.74527 3.99995 8.4961 4.02376 8.25459 4.06928C8.2078 4.35468 8.17887 4.65104 8.16537 4.9557Z" fill="#3D474D"/>
</svg>

<svg xmlns="http://www.w3.org/2000/svg" fill="none" viewBox="0 0 24 24" width="100%" height="100%">
  <path fill="#3D474D" d="M12 5.354c-.622.705-1 1.631-1 2.646a3.99 3.99 0 0 0 1 2.646c.622-.705 1-1.632 1-2.646s-.378-1.94-1-2.646Zm-3.06 5.304a1 1 0 1 0-1.88.684l.071.196a3.982 3.982 0 0 0 2.289.44l-.48-1.32Z"/>
  <path fill="#3D474D" fill-rule="evenodd" d="M10.264 4.204c.1-.471.26-.783.435-.985.237-.272.615-.47 1.301-.47.686 0 1.063.198 1.298.469.176.202.335.515.434.987A4.004 4.004 0 0 0 12 5.355a4.004 4.004 0 0 0-1.736-1.151Zm-2.01-.135a7.553 7.553 0 0 0-.089.887l1.998.088a5.16 5.16 0 0 1 .1-.84 3.996 3.996 0 0 0-2.008-.135Zm-1.123 7.469 3.93 10.804a1 1 0 0 0 1.879 0l3.929-10.804a4 4 0 0 0-1.13-7.47c-.135-.837-.426-1.58-.932-2.163C14.1 1.092 13.11.75 12 .75s-2.1.343-2.808 1.155c-.508.582-.8 1.327-.937 2.165a4.001 4.001 0 0 0-1.124 7.469Zm2.289.44a3.982 3.982 0 0 1-2.288-.44l-.072-.196a1 1 0 1 1 1.88-.684l.48 1.32ZM12 10.646a3.992 3.992 0 0 0 2.58 1.332L12 19.074l-2.58-7.096A3.992 3.992 0 0 0 12 10.646ZM11 8a3.99 3.99 0 0 1 1-2.646c.622.705 1 1.631 1 2.646a3.99 3.99 0 0 1-1 2.646A3.985 3.985 0 0 1 11 8Zm0 0a2 2 0 1 1-4 0 2 2 0 0 1 4 0Zm2 0a2 2 0 1 1 4 0 2 2 0 0 1-4 0Z" clip-rule="evenodd"/>
  <path fill="#3D474D" d="m8.165 4.956 1.998.088a5.16 5.16 0 0 1 .1-.84 3.996 3.996 0 0 0-2.008-.135 7.553 7.553 0 0 0-.09.887Z"/>
</svg>
